X:122 
T:Knocknagow 2* 
B:CRE 3.030 (gan ainm)
F:file ID: cre.3/122knock_g2
N:This is usually played following Knocknagow 1 as one 4-part tune.
Q:160
L:1/8
M:6/8
R:jig
K:A
c/d/| ece dcB|cAF ECE|AGA cAc|dcd Bcd|
ef/e/c dcB|cAF ECE|Ace aed|cAA A2:|
F|Aaf =ga/g/e|ab/a/f ecA|dfa ecA|cBB Bcd|
ecA fdB|a=ga ecA|def aed|cAA A2:|

%%%

